images/portal/5871.svg

<?xml version="1.0" standalone="no"?><!DOCTYPE svg PUBLIC "-//W3C//DTD SVG 1.1//EN" "http://www.w3.org/Graphics/SVG/1.1/DTD/svg11.dtd"><svg xmlns:xlink="http://www.w3.org/1999/xlink" version="1.1" class="highcharts-root" style="font-family:arial;font-size:12px;" xmlns="http://www.w3.org/2000/svg" viewBox="0 0 665 208"><desc>Created with Highstock 5.0.14</desc><defs><clipPath id="highcharts-e1dhtb4-6"><rect x="0" y="0" width="613" height="86" fill="none"></rect></clipPath><clipPath id="highcharts-e1dhtb4-7"><rect x="0" y="0" width="613" height="86" fill="none"></rect></clipPath></defs><rect fill="#fbfbfb" class="highcharts-background" x="0" y="0" width="665" height="208" rx="0" ry="0"></rect><rect fill="none" class="highcharts-plot-background" x="49" y="43" width="613" height="86"></rect><g class="highcharts-pane-group"></g><g class="highcharts-grid highcharts-xaxis-grid "><path fill="none" class="highcharts-grid-line" d="M 77.5 43 L 77.5 129" opacity="1"></path><path fill="none" class="highcharts-grid-line" d="M 106.5 43 L 106.5 129" opacity="1"></path><path fill="none" class="highcharts-grid-line" d="M 136.5 43 L 136.5 129" opacity="1"></path><path fill="none" class="highcharts-grid-line" d="M 165.5 43 L 165.5 129" opacity="1"></path><path fill="none" class="highcharts-grid-line" d="M 194.5 43 L 194.5 129" opacity="1"></path><path fill="none" class="highcharts-grid-line" d="M 223.5 43 L 223.5 129" opacity="1"></path><path fill="none" class="highcharts-grid-line" d="M 252.5 43 L 252.5 129" opacity="1"></path><path fill="none" class="highcharts-grid-line" d="M 282.5 43 L 282.5 129" opacity="1"></path><path fill="none" class="highcharts-grid-line" d="M 311.5 43 L 311.5 129" opacity="1"></path><path fill="none" class="highcharts-grid-line" d="M 340.5 43 L 340.5 129" opacity="1"></path><path fill="none" class="highcharts-grid-line" d="M 369.5 43 L 369.5 129" opacity="1"></path><path fill="none" class="highcharts-grid-line" d="M 398.5 43 L 398.5 129" opacity="1"></path><path fill="none" class="highcharts-grid-line" d="M 427.5 43 L 427.5 129" opacity="1"></path><path fill="none" class="highcharts-grid-line" d="M 457.5 43 L 457.5 129" opacity="1"></path><path fill="none" class="highcharts-grid-line" d="M 486.5 43 L 486.5 129" opacity="1"></path><path fill="none" class="highcharts-grid-line" d="M 515.5 43 L 515.5 129" opacity="1"></path><path fill="none" class="highcharts-grid-line" d="M 544.5 43 L 544.5 129" opacity="1"></path><path fill="none" class="highcharts-grid-line" d="M 573.5 43 L 573.5 129" opacity="1"></path><path fill="none" class="highcharts-grid-line" d="M 603.5 43 L 603.5 129" opacity="1"></path><path fill="none" class="highcharts-grid-line" d="M 632.5 43 L 632.5 129" opacity="1"></path><path fill="none" class="highcharts-grid-line" d="M 661.5 43 L 661.5 129" opacity="1"></path><path fill="none" class="highcharts-grid-line" d="M 48.5 43 L 48.5 129" opacity="1"></path></g><g class="highcharts-grid highcharts-yaxis-grid "><path fill="none" stroke="#B9CFD7" stroke-width="0.5" class="highcharts-grid-line" d="M 49 129.25 L 662 129.25" opacity="1"></path><path fill="none" stroke="#B9CFD7" stroke-width="0.5" class="highcharts-grid-line" d="M 49 86.25 L 662 86.25" opacity="1"></path><path fill="none" stroke="#B9CFD7" stroke-width="0.5" class="highcharts-grid-line" d="M 49 42.75 L 662 42.75" opacity="1"></path></g><rect fill="none" class="highcharts-plot-border" x="49" y="43" width="613" height="86"></rect><g class="highcharts-axis highcharts-xaxis "><path fill="none" class="highcharts-tick" stroke="#FFFFFF" stroke-width="1" d="M 77.5 129 L 77.5 139" opacity="1"></path><path fill="none" class="highcharts-tick" stroke="#FFFFFF" stroke-width="1" d="M 106.5 129 L 106.5 139" opacity="1"></path><path fill="none" class="highcharts-tick" stroke="#FFFFFF" stroke-width="1" d="M 136.5 129 L 136.5 139" opacity="1"></path><path fill="none" class="highcharts-tick" stroke="#FFFFFF" stroke-width="1" d="M 165.5 129 L 165.5 139" opacity="1"></path><path fill="none" class="highcharts-tick" stroke="#FFFFFF" stroke-width="1" d="M 194.5 129 L 194.5 139" opacity="1"></path><path fill="none" class="highcharts-tick" stroke="#FFFFFF" stroke-width="1" d="M 223.5 129 L 223.5 139" opacity="1"></path><path fill="none" class="highcharts-tick" stroke="#FFFFFF" stroke-width="1" d="M 252.5 129 L 252.5 139" opacity="1"></path><path fill="none" class="highcharts-tick" stroke="#FFFFFF" stroke-width="1" d="M 282.5 129 L 282.5 139" opacity="1"></path><path fill="none" class="highcharts-tick" stroke="#FFFFFF" stroke-width="1" d="M 311.5 129 L 311.5 139" opacity="1"></path><path fill="none" class="highcharts-tick" stroke="#FFFFFF" stroke-width="1" d="M 340.5 129 L 340.5 139" opacity="1"></path><path fill="none" class="highcharts-tick" stroke="#FFFFFF" stroke-width="1" d="M 369.5 129 L 369.5 139" opacity="1"></path><path fill="none" class="highcharts-tick" stroke="#FFFFFF" stroke-width="1" d="M 398.5 129 L 398.5 139" opacity="1"></path><path fill="none" class="highcharts-tick" stroke="#FFFFFF" stroke-width="1" d="M 427.5 129 L 427.5 139" opacity="1"></path><path fill="none" class="highcharts-tick" stroke="#FFFFFF" stroke-width="1" d="M 457.5 129 L 457.5 139" opacity="1"></path><path fill="none" class="highcharts-tick" stroke="#FFFFFF" stroke-width="1" d="M 486.5 129 L 486.5 139" opacity="1"></path><path fill="none" class="highcharts-tick" stroke="#FFFFFF" stroke-width="1" d="M 515.5 129 L 515.5 139" opacity="1"></path><path fill="none" class="highcharts-tick" stroke="#FFFFFF" stroke-width="1" d="M 544.5 129 L 544.5 139" opacity="1"></path><path fill="none" class="highcharts-tick" stroke="#FFFFFF" stroke-width="1" d="M 573.5 129 L 573.5 139" opacity="1"></path><path fill="none" class="highcharts-tick" stroke="#FFFFFF" stroke-width="1" d="M 603.5 129 L 603.5 139" opacity="1"></path><path fill="none" class="highcharts-tick" stroke="#FFFFFF" stroke-width="1" d="M 632.5 129 L 632.5 139" opacity="1"></path><path fill="none" class="highcharts-tick" stroke="#FFFFFF" stroke-width="1" d="M 662.5 129 L 662.5 139" opacity="1"></path><path fill="none" class="highcharts-tick" stroke="#FFFFFF" stroke-width="1" d="M 48.5 129 L 48.5 139" opacity="1"></path><path fill="none" class="highcharts-axis-line" stroke="#B9CFD7" stroke-width="0.5" d="M 49 129.25 L 662 129.25"></path></g><g class="highcharts-axis highcharts-yaxis "><path fill="none" class="highcharts-axis-line" d="M 49 43 L 49 129"></path></g><g class="highcharts-series-group"><g class="highcharts-series highcharts-series-0 highcharts-column-series highcharts-color-undefined " transform="translate(49,43) scale(1 1)" clip-path="url(#highcharts-e1dhtb4-7)"><rect x="6" y="80" width="9" height="7" fill="#FABD24" class="highcharts-point"></rect><rect x="35" y="74" width="9" height="13" fill="#FABD24" class="highcharts-point"></rect><rect x="64" y="57" width="9" height="30" fill="#FABD24" class="highcharts-point"></rect><rect x="93" y="62" width="9" height="25" fill="#FABD24" class="highcharts-point"></rect><rect x="123" y="57" width="8" height="30" fill="#FABD24" class="highcharts-point"></rect><rect x="152" y="34" width="9" height="53" fill="#FABD24" class="highcharts-point"></rect><rect x="181" y="61" width="9" height="26" fill="#FABD24" class="highcharts-point"></rect><rect x="210" y="49" width="9" height="38" fill="#FABD24" class="highcharts-point"></rect><rect x="239" y="68" width="9" height="19" fill="#FABD24" class="highcharts-point"></rect><rect x="269" y="41" width="8" height="46" fill="#FABD24" class="highcharts-point"></rect><rect x="298" y="34" width="9" height="53" fill="#FABD24" class="highcharts-point"></rect><rect x="327" y="80" width="9" height="7" fill="#FABD24" class="highcharts-point"></rect><rect x="356" y="76" width="9" height="11" fill="#FABD24" class="highcharts-point"></rect><rect x="385" y="72" width="9" height="15" fill="#FABD24" class="highcharts-point"></rect><rect x="415" y="62" width="8" height="25" fill="#FABD24" class="highcharts-point"></rect><rect x="444" y="72" width="8" height="15" fill="#FABD24" class="highcharts-point"></rect><rect x="473" y="41" width="9" height="46" fill="#FABD24" class="highcharts-point"></rect><rect x="502" y="66" width="9" height="21" fill="#FABD24" class="highcharts-point"></rect><rect x="531" y="79" width="9" height="8" fill="#FABD24" class="highcharts-point"></rect><rect x="560" y="28" width="9" height="59" fill="#FABD24" class="highcharts-point"></rect><rect x="590" y="84" width="8" height="3" fill="#FABD24" class="highcharts-point"></rect></g><g class="highcharts-markers highcharts-series-0 highcharts-column-series highcharts-color-undefined " transform="translate(49,43) scale(1 1)" clip-path="none"></g><g class="highcharts-series highcharts-series-1 highcharts-column-series highcharts-color-undefined " transform="translate(49,43) scale(1 1)" clip-path="url(#highcharts-e1dhtb4-7)"><rect x="15" y="80" width="8" height="7" fill="#B00000" class="highcharts-point"></rect><rect x="44" y="73" width="9" height="14" fill="#B00000" class="highcharts-point"></rect><rect x="73" y="56" width="9" height="31" fill="#B00000" class="highcharts-point"></rect><rect x="102" y="61" width="9" height="26" fill="#B00000" class="highcharts-point"></rect><rect x="131" y="56" width="9" height="31" fill="#B00000" class="highcharts-point"></rect><rect x="161" y="33" width="8" height="54" fill="#B00000" class="highcharts-point"></rect><rect x="190" y="61" width="8" height="26" fill="#B00000" class="highcharts-point"></rect><rect x="219" y="48" width="9" height="39" fill="#B00000" class="highcharts-point"></rect><rect x="248" y="67" width="9" height="20" fill="#B00000" class="highcharts-point"></rect><rect x="277" y="39" width="9" height="48" fill="#B00000" class="highcharts-point"></rect><rect x="307" y="33" width="8" height="54" fill="#B00000" class="highcharts-point"></rect><rect x="336" y="80" width="8" height="7" fill="#B00000" class="highcharts-point"></rect><rect x="365" y="75" width="9" height="12" fill="#B00000" class="highcharts-point"></rect><rect x="394" y="71" width="9" height="16" fill="#B00000" class="highcharts-point"></rect><rect x="423" y="61" width="9" height="26" fill="#B00000" class="highcharts-point"></rect><rect x="452" y="68" width="9" height="19" fill="#B00000" class="highcharts-point"></rect><rect x="482" y="41" width="8" height="46" fill="#B00000" class="highcharts-point"></rect><rect x="511" y="66" width="9" height="21" fill="#B00000" class="highcharts-point"></rect><rect x="540" y="79" width="9" height="8" fill="#B00000" class="highcharts-point"></rect><rect x="569" y="27" width="9" height="60" fill="#B00000" class="highcharts-point"></rect><rect x="598" y="84" width="9" height="3" fill="#B00000" class="highcharts-point"></rect></g><g class="highcharts-markers highcharts-series-1 highcharts-column-series highcharts-color-undefined " transform="translate(49,43) scale(1 1)" clip-path="none"></g></g><text x="3" text-anchor="start" class="highcharts-title" style="color:#000000;font-size:10px;font-weight:bold;fill:#000000;" y="14"><tspan>Bevölkerung am Jahresende</tspan></text><g class="highcharts-legend" transform="translate(38,7)"><rect fill="none" class="highcharts-legend-box" rx="0" ry="0" x="0" y="0" width="122" height="24" visibility="visible"></rect><g><g><g class="highcharts-legend-item highcharts-column-series highcharts-color-undefined highcharts-series-0" transform="translate(8,3)"><text x="21" style="color:#333333;font-size:10px;font-weight:normal;cursor:pointer;fill:#333333;" text-anchor="start" y="13"><tspan>2011</tspan></text><rect x="3" y="4" width="10" height="10" fill="#FABD24" class="highcharts-point"></rect></g><g class="highcharts-legend-item highcharts-column-series highcharts-color-undefined highcharts-series-1" transform="translate(71.1875,3)"><text x="21" y="13" style="color:#333333;font-size:10px;font-weight:normal;cursor:pointer;fill:#333333;" text-anchor="start"><tspan>2016</tspan></text><rect x="3" y="4" width="10" height="10" fill="#B00000" class="highcharts-point"></rect></g></g></g></g><g class="highcharts-axis-labels highcharts-xaxis-labels "><text x="67.5952380952381" style="color:#000000;cursor:default;font-size:10;fill:#000000;" text-anchor="end" transform="translate(0,0) rotate(-90 67.5952380952381 141)" y="141" opacity="1"><tspan>Altstadt GB</tspan></text><text x="96.78571428571428" style="color:#000000;cursor:default;font-size:10;fill:#000000;" text-anchor="end" transform="translate(0,0) rotate(-90 96.78571428571428 141)" y="141" opacity="1"><tspan>Vorstädte</tspan></text><text x="125.97619047619048" style="color:#000000;cursor:default;font-size:10;fill:#000000;" text-anchor="end" transform="translate(0,0) rotate(-90 125.97619047619048 141)" y="141" opacity="1"><tspan>Am Ring</tspan></text><text x="155.16666666666666" style="color:#000000;cursor:default;font-size:10;fill:#000000;" text-anchor="end" transform="translate(0,0) rotate(-90 155.16666666666666 141)" y="141" opacity="1"><tspan>Breite</tspan></text><text x="184.35714285714286" style="color:#000000;cursor:default;font-size:10;fill:#000000;" text-anchor="end" transform="translate(0,0) rotate(-90 184.35714285714286 141)" y="141" opacity="1"><tspan>St. Alban</tspan></text><text x="213.54761904761904" style="color:#000000;cursor:default;font-size:10;fill:#000000;" text-anchor="end" transform="translate(0,0) rotate(-90 213.54761904761904 141)" y="141" opacity="1"><tspan>Gundeldingen</tspan></text><text x="242.73809523809527" style="color:#000000;cursor:default;font-size:10;fill:#000000;" text-anchor="end" transform="translate(0,0) rotate(-90 242.73809523809527 141)" y="141" opacity="1"><tspan>Bruderholz</tspan></text><text x="271.92857142857144" style="color:#000000;cursor:default;font-size:10;fill:#000000;" text-anchor="end" transform="translate(0,0) rotate(-90 271.92857142857144 141)" y="141" opacity="1"><tspan>Bachletten</tspan></text><text x="301.11904761904765" style="color:#000000;cursor:default;font-size:10;fill:#000000;" text-anchor="end" transform="translate(0,0) rotate(-90 301.11904761904765 141)" y="141" opacity="1"><tspan>Gotthelf</tspan></text><text x="330.3095238095238" style="color:#000000;cursor:default;font-size:10;fill:#000000;" text-anchor="end" transform="translate(0,0) rotate(-90 330.3095238095238 141)" y="141" opacity="1"><tspan>Iselin</tspan></text><text x="359.5" style="color:#000000;cursor:default;font-size:10;fill:#000000;" text-anchor="end" transform="translate(0,0) rotate(-90 359.5 141)" y="141" opacity="1"><tspan>St. Johann</tspan></text><text x="388.6904761904762" style="color:#000000;cursor:default;font-size:10;fill:#000000;" text-anchor="end" transform="translate(0,0) rotate(-90 388.6904761904762 141)" y="141" opacity="1"><tspan>Altstadt KB</tspan></text><text x="417.88095238095235" style="color:#000000;cursor:default;font-size:10;fill:#000000;" text-anchor="end" transform="translate(0,0) rotate(-90 417.88095238095235 141)" y="141" opacity="1"><tspan>Clara</tspan></text><text x="447.07142857142856" style="color:#000000;cursor:default;font-size:10;fill:#000000;" text-anchor="end" transform="translate(0,0) rotate(-90 447.07142857142856 141)" y="141" opacity="1"><tspan>Wettstein</tspan></text><text x="476.26190476190476" style="color:#000000;cursor:default;font-size:10;fill:#000000;" text-anchor="end" transform="translate(0,0) rotate(-90 476.26190476190476 141)" y="141" opacity="1"><tspan>Hirzbrunnen</tspan></text><text x="505.45238095238096" style="color:#000000;cursor:default;font-size:10;fill:#000000;" text-anchor="end" transform="translate(0,0) rotate(-90 505.45238095238096 141)" y="141" opacity="1"><tspan>Rosental</tspan></text><text x="534.6428571428571" style="color:#000000;cursor:default;font-size:10;fill:#000000;" text-anchor="end" transform="translate(0,0) rotate(-90 534.6428571428571 141)" y="141" opacity="1"><tspan>Matthäus</tspan></text><text x="563.8333333333334" style="color:#000000;cursor:default;font-size:10;fill:#000000;" text-anchor="end" transform="translate(0,0) rotate(-90 563.8333333333334 141)" y="141" opacity="1"><tspan>Klybeck</tspan></text><text x="593.0238095238095" style="color:#000000;cursor:default;font-size:10;fill:#000000;" text-anchor="end" transform="translate(0,0) rotate(-90 593.0238095238095 141)" y="141" opacity="1"><tspan>Kleinhüningen</tspan></text><text x="622.2142857142857" style="color:#000000;cursor:default;font-size:10;fill:#000000;" text-anchor="end" transform="translate(0,0) rotate(-90 622.2142857142857 141)" y="141" opacity="1"><tspan>Riehen</tspan></text><text x="651.4047619047619" style="color:#000000;cursor:default;font-size:10;fill:#000000;" text-anchor="end" transform="translate(0,0) rotate(-90 651.4047619047619 141)" y="141" opacity="1"><tspan>Bettingen</tspan></text></g><g class="highcharts-axis-labels highcharts-yaxis-labels "><text x="34" style="color:#000000;cursor:default;font-size:10;fill:#000000;" text-anchor="end" transform="translate(0,0)" y="135" opacity="1"><tspan>0</tspan></text><text x="34" style="color:#000000;cursor:default;font-size:10;fill:#000000;" text-anchor="end" transform="translate(0,0)" y="92" opacity="1"><tspan>15 000</tspan></text><text x="34" style="color:#000000;cursor:default;font-size:10;fill:#000000;" text-anchor="end" transform="translate(0,0)" y="49" opacity="1"><tspan>30 000</tspan></text></g><text x="10" class="highcharts-credits" text-anchor="start" style="cursor:default;color:#000000;font-size:10;fill:#000000;" y="193"><tspan>Quelle: Statistisches Amt Basel-Stadt, Bevölkerungsstatistik</tspan></text></svg>

<svg class="highcharts-root" xmlns="http://www.w3.org/2000/svg" viewBox="0 0 665 208" font-family="arial" font-size="12">
    <defs>
        <clipPath id="a">
            <path fill="none" d="M0 0h613v86H0z"/>
        </clipPath>
    </defs>
    <rect fill="#fbfbfb" class="highcharts-background" width="665" height="208" rx="0" ry="0"/>
    <path fill="none" class="highcharts-plot-background" d="M49 43h613v86H49z"/>
    <g class="highcharts-grid highcharts-xaxis-grid">
        <path fill="none" class="highcharts-grid-line" d="M77.5 43v86m29-86v86m30-86v86m29-86v86m29-86v86m29-86v86m29-86v86m30-86v86m29-86v86m29-86v86m29-86v86m29-86v86m29-86v86m30-86v86m29-86v86m29-86v86m29-86v86m29-86v86m30-86v86m29-86v86m29-86v86m-613-86v86"/>
    </g>
    <g class="highcharts-grid highcharts-yaxis-grid">
        <path fill="none" stroke="#B9CFD7" stroke-width=".5" class="highcharts-grid-line" d="M49 129.25h613m-613-43h613M49 42.75h613"/>
    </g>
    <path fill="none" class="highcharts-plot-border" d="M49 43h613v86H49z"/>
    <g class="highcharts-axis highcharts-xaxis">
        <path fill="none" class="highcharts-tick" stroke="#FFF" d="M77.5 129v10m29-10v10m30-10v10m29-10v10m29-10v10m29-10v10m29-10v10m30-10v10m29-10v10m29-10v10m29-10v10m29-10v10m29-10v10m30-10v10m29-10v10m29-10v10m29-10v10m29-10v10m30-10v10m29-10v10m30-10v10m-614-10v10"/>
        <path fill="none" class="highcharts-axis-line" stroke="#B9CFD7" stroke-width=".5" d="M49 129.25h613"/>
    </g>
    <g class="highcharts-axis highcharts-yaxis">
        <path fill="none" class="highcharts-axis-line" d="M49 43v86"/>
    </g>
    <g class="highcharts-series-group">
        <g class="highcharts-series highcharts-series-0 highcharts-column-series highcharts-color-undefined" transform="translate(49 43)" clip-path="url(#a)">
            <path fill="#FABD24" class="highcharts-point" d="M6 80h9v7H6zm29-6h9v13h-9zm29-17h9v30h-9zm29 5h9v25h-9zm30-5h8v30h-8zm29-23h9v53h-9zm29 27h9v26h-9zm29-12h9v38h-9zm29 19h9v19h-9zm30-27h8v46h-8zm29-7h9v53h-9zm29 46h9v7h-9zm29-4h9v11h-9zm29-4h9v15h-9zm30-10h8v25h-8zm29 10h8v15h-8zm29-31h9v46h-9zm29 25h9v21h-9zm29 13h9v8h-9zm29-51h9v59h-9zm30 56h8v3h-8z"/>
        </g>
        <g class="highcharts-series highcharts-series-1 highcharts-column-series highcharts-color-undefined" transform="translate(49 43)" clip-path="url(#a)">
            <path fill="#B00000" class="highcharts-point" d="M15 80h8v7h-8zm29-7h9v14h-9zm29-17h9v31h-9zm29 5h9v26h-9zm29-5h9v31h-9zm30-23h8v54h-8zm29 28h8v26h-8zm29-13h9v39h-9zm29 19h9v20h-9zm29-28h9v48h-9zm30-6h8v54h-8zm29 47h8v7h-8zm29-5h9v12h-9zm29-4h9v16h-9zm29-10h9v26h-9zm29 7h9v19h-9zm30-27h8v46h-8zm29 25h9v21h-9zm29 13h9v8h-9zm29-52h9v60h-9zm29 57h9v3h-9z"/>
        </g>
    </g>
    <text x="3" class="highcharts-title" y="14" color="#000" font-size="10" font-weight="700">
        <tspan>Bevölkerung am Jahresende</tspan>
    </text>
    <g class="highcharts-legend" transform="translate(38 7)">
        <rect fill="none" class="highcharts-legend-box" rx="0" ry="0" width="122" height="24"/>
        <g class="highcharts-legend-item highcharts-column-series highcharts-color-undefined highcharts-series-0">
            <text x="21" y="13" color="#333" font-size="10" font-weight="400" cursor="pointer" fill="#333" transform="translate(8 3)">
                <tspan>2011</tspan>
            </text>
            <path fill="#FABD24" class="highcharts-point" d="M11 7h10v10H11z"/>
        </g>
        <g class="highcharts-legend-item highcharts-column-series highcharts-color-undefined highcharts-series-1">
            <text x="21" y="13" color="#333" font-size="10" font-weight="400" cursor="pointer" fill="#333" transform="translate(71.188 3)">
                <tspan>2016</tspan>
            </text>
            <path fill="#B00000" class="highcharts-point" d="M74.188 7h10v10h-10z"/>
        </g>
    </g>
    <g class="highcharts-axis-labels highcharts-xaxis-labels" text-anchor="end" color="#000" cursor="default" font-size="10">
        <text x="67.595" transform="rotate(-90 67.595 141)" y="141">
            <tspan>Altstadt GB</tspan>
        </text>
        <text x="96.786" transform="rotate(-90 96.786 141)" y="141">
            <tspan>Vorstädte</tspan>
        </text>
        <text x="125.976" transform="rotate(-90 125.976 141)" y="141">
            <tspan>Am Ring</tspan>
        </text>
        <text x="155.167" transform="rotate(-90 155.167 141)" y="141">
            <tspan>Breite</tspan>
        </text>
        <text x="184.357" transform="rotate(-90 184.357 141)" y="141">
            <tspan>St. Alban</tspan>
        </text>
        <text x="213.548" transform="rotate(-90 213.548 141)" y="141">
            <tspan>Gundeldingen</tspan>
        </text>
        <text x="242.738" transform="rotate(-90 242.738 141)" y="141">
            <tspan>Bruderholz</tspan>
        </text>
        <text x="271.929" transform="rotate(-90 271.929 141)" y="141">
            <tspan>Bachletten</tspan>
        </text>
        <text x="301.119" transform="rotate(-90 301.119 141)" y="141">
            <tspan>Gotthelf</tspan>
        </text>
        <text x="330.31" transform="rotate(-90 330.31 141)" y="141">
            <tspan>Iselin</tspan>
        </text>
        <text x="359.5" transform="rotate(-90 359.5 141)" y="141">
            <tspan>St. Johann</tspan>
        </text>
        <text x="388.69" transform="rotate(-90 388.69 141)" y="141">
            <tspan>Altstadt KB</tspan>
        </text>
        <text x="417.881" transform="rotate(-90 417.881 141)" y="141">
            <tspan>Clara</tspan>
        </text>
        <text x="447.071" transform="rotate(-90 447.071 141)" y="141">
            <tspan>Wettstein</tspan>
        </text>
        <text x="476.262" transform="rotate(-90 476.262 141)" y="141">
            <tspan>Hirzbrunnen</tspan>
        </text>
        <text x="505.452" transform="rotate(-90 505.452 141)" y="141">
            <tspan>Rosental</tspan>
        </text>
        <text x="534.643" transform="rotate(-90 534.643 141)" y="141">
            <tspan>Matthäus</tspan>
        </text>
        <text x="563.833" transform="rotate(-90 563.833 141)" y="141">
            <tspan>Klybeck</tspan>
        </text>
        <text x="593.024" transform="rotate(-90 593.024 141)" y="141">
            <tspan>Kleinhüningen</tspan>
        </text>
        <text x="622.214" transform="rotate(-90 622.214 141)" y="141">
            <tspan>Riehen</tspan>
        </text>
        <text x="651.405" transform="rotate(-90 651.405 141)" y="141">
            <tspan>Bettingen</tspan>
        </text>
    </g>
    <g class="highcharts-axis-labels highcharts-yaxis-labels" text-anchor="end" color="#000" cursor="default" font-size="10">
        <text x="34" y="135">
            <tspan>0</tspan>
        </text>
        <text x="34" y="92">
            <tspan>15 000</tspan>
        </text>
        <text x="34" y="49">
            <tspan>30 000</tspan>
        </text>
    </g>
    <text x="10" class="highcharts-credits" y="193" cursor="default" color="#000" font-size="10">
        <tspan>Quelle: Statistisches Amt Basel-Stadt, Bevölkerungsstatistik</tspan>
    </text>
</svg>
